Newaita-dark/actions/scalable/player-volume.svg

<?xml version="1.0" encoding="UTF-8"?>
<svg xmlns="http://www.w3.org/2000/svg" xmlns:xlink="http://www.w3.org/1999/xlink" width="512pt" height="512pt" viewBox="0 0 512 512" version="1.1">
<defs>
<filter id="alpha" filterUnits="objectBoundingBox" x="0%" y="0%" width="100%" height="100%">
  <feColorMatrix type="matrix" in="SourceGraphic" values="0 0 0 0 1 0 0 0 0 1 0 0 0 0 1 0 0 0 1 0"/>
</filter>
<mask id="mask0">
  <g filter="url(#alpha)">
<rect x="0" y="0" width="512" height="512" style="fill:rgb(0%,0%,0%);fill-opacity:0.988235;stroke:none;"/>
  </g>
</mask>
<clipPath id="clip1">
  <rect x="0" y="0" width="512" height="512"/>
</clipPath>
<g id="surface5" clip-path="url(#clip1)">
<path style=" stroke:none;fill-rule:nonzero;fill:rgb(74.117649%,74.117649%,74.117649%);fill-opacity:1;" d="M 63.507812 152.179688 C 40.050781 152.179688 21.167969 171.0625 21.167969 194.519531 L 21.167969 321.53125 C 21.167969 344.984375 40.050781 363.867188 63.507812 363.867188 Z M 63.507812 152.179688 "/>
</g>
<mask id="mask1">
  <g filter="url(#alpha)">
<rect x="0" y="0" width="512" height="512" style="fill:rgb(0%,0%,0%);fill-opacity:0.988235;stroke:none;"/>
  </g>
</mask>
<clipPath id="clip2">
  <rect x="0" y="0" width="512" height="512"/>
</clipPath>
<g id="surface8" clip-path="url(#clip2)">
<path style=" stroke:none;fill-rule:nonzero;fill:rgb(25.882354%,64.705884%,96.078432%);fill-opacity:1;" d="M 232.855469 46.335938 L 232.855469 469.710938 C 256.308594 469.710938 275.191406 450.828125 275.191406 427.375 L 275.191406 88.675781 C 275.191406 65.21875 256.308594 46.335938 232.855469 46.335938 Z M 232.855469 46.335938 "/>
</g>
</defs>
<g id="surface1">
<use xlink:href="#surface5" mask="url(#mask0)"/>
<path style=" stroke:none;fill-rule:evenodd;fill:rgb(74.117649%,74.117649%,74.117649%);fill-opacity:1;" d="M 211.621094 46.339844 C 211.433594 46.339844 211.25 46.34375 211.0625 46.351562 C 206.472656 46.484375 202.050781 48.109375 198.464844 50.976562 L 92.621094 135.652344 C 87.597656 139.667969 84.675781 145.75 84.675781 152.179688 L 84.675781 363.867188 C 84.675781 370.300781 87.597656 376.378906 92.621094 380.398438 L 198.464844 465.070312 C 202.527344 468.320312 207.164062 469.769531 211.6875 469.746094 L 211.6875 46.339844 C 211.664062 46.339844 211.640625 46.339844 211.621094 46.339844 Z M 211.621094 46.339844 "/>
<use xlink:href="#surface8" mask="url(#mask1)"/>
<path style=" stroke:none;fill-rule:evenodd;fill:rgb(25.882354%,64.705884%,96.078432%);fill-opacity:1;" d="M 338.699219 67.507812 C 325.445312 67.507812 315.453125 79.550781 317.894531 92.578125 L 321.132812 109.84375 L 483.28125 109.84375 L 486.515625 92.578125 C 488.957031 79.550781 478.964844 67.507812 465.710938 67.507812 Z M 329.070312 152.179688 L 337.007812 194.519531 L 467.402344 194.519531 L 475.339844 152.179688 Z M 344.945312 236.855469 L 352.882812 279.191406 L 451.527344 279.191406 L 459.464844 236.855469 Z M 360.820312 321.53125 L 368.761719 363.867188 L 435.648438 363.867188 L 443.589844 321.53125 Z M 376.699219 406.207031 L 381.398438 431.273438 C 383.28125 441.28125 392.023438 448.53125 402.207031 448.53125 C 412.386719 448.53125 421.128906 441.28125 423.011719 431.273438 L 427.710938 406.207031 Z M 376.699219 406.207031 "/>
</g>
</svg>

<svg xmlns="http://www.w3.org/2000/svg" xmlns:xlink="http://www.w3.org/1999/xlink" width="512pt" height="512pt" viewBox="0 0 512 512"><defs><filter id="a" filterUnits="objectBoundingBox" x="0%" y="0%" width="100%" height="100%"><feColorMatrix in="SourceGraphic" values="0 0 0 0 1 0 0 0 0 1 0 0 0 0 1 0 0 0 1 0"/></filter><mask id="e"><path fill-opacity=".988" d="M0 0h512v512H0z" filter="url(#a)"/></mask><clipPath id="b"><path d="M0 0h512v512H0z"/></clipPath><g id="d" clip-path="url(#b)"><path d="M63.508 152.18c-23.457 0-42.34 18.882-42.34 42.34V321.53c0 23.453 18.883 42.336 42.34 42.336zm0 0" fill="#bdbdbd"/></g><mask id="g"><path fill-opacity=".988" d="M0 0h512v512H0z" filter="url(#a)"/></mask><clipPath id="c"><path d="M0 0h512v512H0z"/></clipPath><g id="f" clip-path="url(#c)"><path d="M232.855 46.336V469.71c23.454 0 42.336-18.883 42.336-42.336v-338.7c0-23.456-18.882-42.34-42.336-42.34zm0 0" fill="#42a5f5"/></g></defs><use xlink:href="#d" mask="url(#e)"/><path d="M211.621 46.34c-.187 0-.371.004-.559.012a21.155 21.155 0 0 0-12.597 4.625L92.62 135.652a21.157 21.157 0 0 0-7.945 16.528v211.687a21.165 21.165 0 0 0 7.945 16.531l105.844 84.672c4.062 3.25 8.7 4.7 13.222 4.676V46.34h-.066zm0 0" fill-rule="evenodd" fill="#bdbdbd"/><use xlink:href="#f" mask="url(#g)"/><path d="M338.7 67.508c-13.255 0-23.247 12.043-20.805 25.07l3.238 17.266H483.28l3.235-17.266c2.441-13.027-7.551-25.07-20.805-25.07zm-9.63 84.672l7.938 42.34h130.394l7.938-42.34zm15.875 84.675l7.938 42.336h98.644l7.938-42.336zm15.875 84.676l7.942 42.336h66.886l7.942-42.336zm15.88 84.676l4.698 25.066c1.883 10.008 10.625 17.258 20.809 17.258 10.18 0 18.922-7.25 20.805-17.258l4.699-25.066zm0 0" fill-rule="evenodd" fill="#42a5f5"/></svg>
